elementary-xfce/actions/16/object-merge.svg

<?xml version="1.0" encoding="UTF-8" standalone="no"?>
<svg
   width="16px"
   height="16px"
   id="svg3850"
   version="1.1"
   xmlns:xlink="http://www.w3.org/1999/xlink"
   xmlns="http://www.w3.org/2000/svg"
   xmlns:svg="http://www.w3.org/2000/svg"
   xmlns:rdf="http://www.w3.org/1999/02/22-rdf-syntax-ns#"
   xmlns:cc="http://creativecommons.org/ns#"
   xmlns:dc="http://purl.org/dc/elements/1.1/">
  <defs
     id="defs3852">
    <linearGradient
       id="linearGradient4715">
      <stop
         style="stop-color:#555555;stop-opacity:1;"
         offset="0"
         id="stop4717" />
      <stop
         style="stop-color:#666666;stop-opacity:1;"
         offset="1"
         id="stop4719" />
    </linearGradient>
    <linearGradient
       xlink:href="#linearGradient4715"
       id="linearGradient4721"
       x1="8"
       y1="16"
       x2="8"
       y2="0"
       gradientUnits="userSpaceOnUse" />
  </defs>
  <metadata
     id="metadata3855">
    <rdf:RDF>
      <cc:Work
         rdf:about="">
        <dc:format>image/svg+xml</dc:format>
        <dc:type
           rdf:resource="http://purl.org/dc/dcmitype/StillImage" />
      </cc:Work>
    </rdf:RDF>
  </metadata>
  <g
     id="layer1">
    <path
       style="color:#bebebe;display:inline;overflow:visible;visibility:visible;fill:url(#linearGradient4721);fill-opacity:1;fill-rule:nonzero;stroke:none;stroke-width:1;marker:none;enable-background:accumulate"
       d="m 8,1.09375 -0.40625,0.625 -4,6 L 3.0625,8.5 H 4 6.5 V 9 C 6.5,9 6.49079,9.8798886 5.96875,10.75 5.4312439,11.645847 4.5995036,12.5 2,12.5 H 1 0.5 v 0.5 2 0.5 H 1 2 c 3.0401949,0 4.9049782,-1.291201 6,-2.71875 C 9.0950218,14.208799 10.959805,15.5 14,15.5 h 1 0.5 V 15 13 12.5 H 15 14 c -2.599504,0 -3.431244,-0.854154 -3.96875,-1.75 C 9.5091892,9.8798957 9.5,9 9.5,9 V 8.5 h 2.5 0.9375 l -0.53125,-0.78125 -4,-6 z"
       id="path2843-39-5-5" />
    <path
       id="path4382"
       d="m 8,1.09375 -0.40625,0.625 -4,6 L 3.0625,8.5 H 4 6.5 V 9 C 6.5,9 6.49079,9.8798886 5.96875,10.75 5.4312439,11.645847 4.5995036,12.5 2,12.5 H 1 0.5 v 0.5 2 0.5 H 1 2 c 3.0401949,0 4.9049782,-1.291201 6,-2.71875 C 9.0950218,14.208799 10.959805,15.5 14,15.5 h 1 0.5 V 15 13 12.5 H 15 14 c -2.599504,0 -3.431244,-0.854154 -3.96875,-1.75 C 9.5091892,9.8798957 9.5,9 9.5,9 V 8.5 h 2.5 0.9375 l -0.53125,-0.78125 -4,-6 z"
       style="color:#bebebe;display:inline;overflow:visible;visibility:visible;opacity:0.61;fill:none;stroke:#000000;stroke-width:1;stroke-opacity:1;marker:none;enable-background:accumulate" />
    <path
       style="color:#bebebe;display:inline;overflow:visible;visibility:visible;opacity:0.2;fill:#ffffff;fill-opacity:1;fill-rule:nonzero;stroke:none;stroke-width:1;marker:none;enable-background:accumulate"
       d="M 8,2 4,8 H 5 L 8.0018305,3.5 11,8 h 1 z M 7,9 C 7,9 7.00346,10.004596 6.40625,11 6.1150277,11.485372 5.6950568,12.029198 5,12.40625 4.3049432,12.783302 3.3545157,13 2,13 H 1 v 1 H 2 C 3.3545157,14 4.3049432,13.783302 5,13.40625 5.6950568,13.029198 6.1150277,12.485372 6.40625,12 7.00346,11.004596 7,10 7,10 V 9.5 Z M 9,9 V 9.5 10 C 9,10 8.99651,11.004594 9.59375,12 9.8849722,12.485372 10.304943,13.029198 11,13.40625 11.695057,13.783302 12.645484,14 14,14 h 1 V 13 H 14 C 12.645484,13 11.695057,12.783302 11,12.40625 10.304943,12.029198 9.8849722,11.485372 9.59375,11 8.99651,10.004594 9,9 9,9 Z"
       id="path4384" />
  </g>
</svg>

<?xml version="1.0" encoding="UTF-8" standalone="no"?>
<svg
   xmlns:dc="http://purl.org/dc/elements/1.1/"
   xmlns:cc="http://creativecommons.org/ns#"
   xmlns:rdf="http://www.w3.org/1999/02/22-rdf-syntax-ns#"
   xmlns:svg="http://www.w3.org/2000/svg"
   xmlns="http://www.w3.org/2000/svg"
   xmlns:xlink="http://www.w3.org/1999/xlink"
   width="16px"
   height="16px"
   id="svg3850"
   version="1.1">
  <defs
     id="defs3852">
    <linearGradient
       id="linearGradient4715">
      <stop
         style="stop-color:#555555;stop-opacity:1;"
         offset="0"
         id="stop4717" />
      <stop
         style="stop-color:#666666;stop-opacity:1;"
         offset="1"
         id="stop4719" />
    </linearGradient>
    <linearGradient
       xlink:href="#linearGradient4715"
       id="linearGradient4721"
       x1="8"
       y1="16"
       x2="8"
       y2="0"
       gradientUnits="userSpaceOnUse" />
  </defs>
  <metadata
     id="metadata3855">
    <rdf:RDF>
      <cc:Work
         rdf:about="">
        <dc:format>image/svg+xml</dc:format>
        <dc:type
           rdf:resource="http://purl.org/dc/dcmitype/StillImage" />
      </cc:Work>
    </rdf:RDF>
  </metadata>
  <g
     id="layer1">
    <path
       style="color:#bebebe;fill:url(#linearGradient4721);fill-opacity:1;fill-rule:nonzero;stroke:none;stroke-width:1;marker:none;visibility:visible;display:inline;overflow:visible;enable-background:accumulate"
       d="m 8,1.09375 -0.40625,0.625 -4,6 L 3.0625,8.5 4,8.5 l 2.5,0 0,0.5 c 0,0 -0.00921,0.8798886 -0.53125,1.75 C 5.4312439,11.645847 4.5995036,12.5 2,12.5 l -1,0 -0.5,0 0,0.5 0,2 0,0.5 0.5,0 1,0 c 3.0401949,0 4.9049782,-1.291201 6,-2.71875 C 9.0950218,14.208799 10.959805,15.5 14,15.5 l 1,0 0.5,0 0,-0.5 0,-2 0,-0.5 -0.5,0 -1,0 c -2.599504,0 -3.431244,-0.854154 -3.96875,-1.75 C 9.5091892,9.8798957 9.5,9 9.5,9 l 0,-0.5 2.5,0 0.9375,0 -0.53125,-0.78125 -4,-6 L 8,1.09375 z"
       id="path2843-39-5-5" />
    <path
       id="path4382"
       d="m 8,1.09375 -0.40625,0.625 -4,6 L 3.0625,8.5 4,8.5 l 2.5,0 0,0.5 c 0,0 -0.00921,0.8798886 -0.53125,1.75 C 5.4312439,11.645847 4.5995036,12.5 2,12.5 l -1,0 -0.5,0 0,0.5 0,2 0,0.5 0.5,0 1,0 c 3.0401949,0 4.9049782,-1.291201 6,-2.71875 C 9.0950218,14.208799 10.959805,15.5 14,15.5 l 1,0 0.5,0 0,-0.5 0,-2 0,-0.5 -0.5,0 -1,0 c -2.599504,0 -3.431244,-0.854154 -3.96875,-1.75 C 9.5091892,9.8798957 9.5,9 9.5,9 l 0,-0.5 2.5,0 0.9375,0 -0.53125,-0.78125 -4,-6 L 8,1.09375 z"
       style="opacity:0.61000001;color:#bebebe;fill:none;stroke:#000000;stroke-width:1;stroke-opacity:1;marker:none;visibility:visible;display:inline;overflow:visible;enable-background:accumulate" />
    <path
       style="color:#bebebe;fill:#ffffff;fill-opacity:1;fill-rule:nonzero;stroke:none;stroke-width:1;marker:none;visibility:visible;display:inline;overflow:visible;enable-background:accumulate;opacity:0.2"
       d="M 8 2 L 4 8 L 4.65625 8 L 8 3 L 11.34375 8 L 12 8 L 8 2 z M 7 9 C 7 9 7.0034618 10.004596 6.40625 11 C 6.1150277 11.485372 5.6950568 12.029198 5 12.40625 C 4.3049432 12.783302 3.3545157 13 2 13 L 1 13 L 1 14 L 2 14 C 3.3545157 14 4.3049432 13.783302 5 13.40625 C 5.6950568 13.029198 6.1150277 12.485372 6.40625 12 C 7.00346 11.004596 7 10 7 10 L 7 9.5 L 7 9 z M 9 9 L 9 9.5 L 9 10 C 9 10 8.99651 11.004594 9.59375 12 C 9.8849722 12.485372 10.304943 13.029198 11 13.40625 C 11.695057 13.783302 12.645484 14 14 14 L 15 14 L 15 13 L 14 13 C 12.645484 13 11.695057 12.783302 11 12.40625 C 10.304943 12.029198 9.8849722 11.485372 9.59375 11 C 8.99651 10.004594 9 9 9 9 z "
       id="path4384" />
  </g>
</svg>
